assets/lh_favicon.svg

<svg fill="none" height="48" viewBox="0 0 48 48" width="48" xmlns="http://www.w3.org/2000/svg" xmlns:xlink="http://www.w3.org/1999/xlink"><clipPath id="a"><path d="m0 0h48v48h-48z"/></clipPath><g clip-path="url(#a)"><path d="m15 17.5v-9.23241c0-.16718.0836-.32329.2227-.41603l8.4999-5.66666c.168-.11197.3868-.11197.5548 0l8.4999 5.66666c.1392.09274.2227.24885.2227.41603v9.23241c0 .2761.2239.5.5.5h3c.2761 0 .5.2239.5.5v5c0 .2761-.2239.5-.5.5h-2.9055c-.3104 0-.5458.2799-.4926.5857l3.7962 22.8286c.0532.3058-.1822.5857-.4926.5857h-24.811c-.3104 0-.5458-.2799-.4926-.5857l3.7962-22.8286c.0532-.3058-.1822-.5857-.4926-.5857h-2.9055c-.2761 0-.5-.2239-.5-.5v-5c0-.2761.2239-.5.5-.5h3c.2761 0 .5-.2239.5-.5z" fill="#f63"/><g fill="#fff" opacity=".4"><path d="m21.0696 48h-9.4752c-.3104 0-.5458-.2799-.4926-.5857l.563-3.3851 22.7766-11.3883 1.3316 8.0074z"/><path d="m31.0575 24-17.5186 8.7593 1.3592-8.1736c.0531-.3052-.1812-.5845-.4906-.5857z"/></g><path d="m20 10.5c0-.2761.2239-.5.5-.5h7c.2761 0 .5.2239.5.5v7c0 .2761-.2239.5-.5.5h-7c-.2761 0-.5-.2239-.5-.5z" fill="#ff3"/></g></svg>

<svg width="48" height="48" viewBox="0 0 48 48" fill="none" xmlns="http://www.w3.org/2000/svg">
<g clip-path="url(#clip0_1354_3101)">
<path d="M15 17.5V8.26759C15 8.10041 15.0836 7.9443 15.2227 7.85156L23.7226 2.1849C23.8906 2.07293 24.1094 2.07293 24.2774 2.1849L32.7773 7.85156C32.9165 7.9443 33 8.10041 33 8.26759V17.5C33 17.7761 33.2239 18 33.5 18H36.5C36.7761 18 37 18.2239 37 18.5V23.5C37 23.7761 36.7761 24 36.5 24H33.5945C33.2841 24 33.0487 24.2799 33.1019 24.5857L36.8981 47.4143C36.9513 47.7201 36.7159 48 36.4055 48H11.5945C11.2841 48 11.0487 47.7201 11.1019 47.4143L14.8981 24.5857C14.9513 24.2799 14.7159 24 14.4055 24H11.5C11.2239 24 11 23.7761 11 23.5V18.5C11 18.2239 11.2239 18 11.5 18H14.5C14.7761 18 15 17.7761 15 17.5Z" fill="#FF6633"/>
<g opacity="0.4">
<path d="M21.0696 48H11.5944C11.284 48 11.0486 47.7201 11.1018 47.4143L11.6648 44.0292L34.4414 32.6409L35.773 40.6483L21.0696 48Z" fill="white"/>
<path d="M31.0575 24L13.5389 32.7593L14.8981 24.5857C14.9512 24.2805 14.7169 24.0012 14.4075 24H31.0575Z" fill="white"/>
</g>
<path d="M20 10.5C20 10.2239 20.2239 10 20.5 10H27.5C27.7761 10 28 10.2239 28 10.5V17.5C28 17.7761 27.7761 18 27.5 18H20.5C20.2239 18 20 17.7761 20 17.5V10.5Z" fill="#FFFF33"/>
</g>
<defs>
<clipPath id="clip0_1354_3101">
<rect width="48" height="48" fill="white"/>
</clipPath>
</defs>
</svg>
